X: 13201
T: John Hays bonny Lassie
%R: air, waltz, minuet
B: James Oswald "The Caledonian Pocket Companion" v.1 b.3 p.20 #1
S: https://ia800501.us.archive.org/18/items/caledonianpocket01rugg/caledonianpocket01rugg_bw.pdf
Z: 2020 John Chambers <jc:trillian.mit.edu>
M: 3/4
L: 1/8
K: Gmix
%%slurgraces 1
%%graceslurs 1
|: "_Slow"\
D>EG2G2 | G3A (B/A/G) | A3GFG | A2 f4 |\
(DE)G2G2 | (G^F)(GA)(Bc) | (d>ed)c(TBA) | G2 g4 |\
B2d2(Te3/d//e//) | f3g (f/g/a) |
A3G (FG) | {G}A2f2Te>d |\
(g^f)gaba | (ge)(de)(ge) | d>e (d<B) (TA>B) | G2 {Bc}d4 ::\
d>eg2(d'c') | Tb3a gb | Ta3g (fg) | a2{ab}c'2(ba) |
(d>e)g2g2 | (g^f)gabc' | (d'e')(d'c')(ba) | bc' {bc'}d'2(d>c) |\
B2 d(e/f/) e(f/g/) | f3g (a/f/g/a/) | (A>c) (G>A) (F>G) | A2f2(d/e/^f) |
(g^fg)bad | (c'b)(ag)(^fe) | d>g (d<B) (TA>B) | G2 d4 ::\
(D>E)G2(G/A/B/A/) | (G^FG)ABG | (A>_BA)G=FG | AfcAfA |
DEGABc | (d/c/B/A/) GdBG | (d>ed)c(TBA) | Gg dBgd |\
g(g/a/) bgae | g(d/c/) BdgB | A(_B/A/) G(A/G/) FG |
AfcAfA |\
g(d/g/) a(d/a/) b(d/b/) | c'b/c'/ (a/b/)(g/a/) (^f/g/)(e/f/) |\
.d/(g/^f/e/) d/(e/d/c/) B/(c/B/A/) | G2 {Bc}d4 :|


